assets/icons/bowtie/uE67F-switch.svg

<svg xmlns="http://www.w3.org/2000/svg" viewBox="0 0 448 448"><path d="M441.53 144l-113.123 113.156-22.625-22.64 74.502-74.516h-220.284v-32h220.283l-74.503-74.516 22.626-22.625 113.124 113.141zm-299.31 69.484l-22.626-22.625-113.124 113.141 113.124 113.125 22.626-22.625-74.5-74.5h220.28v-32h-220.283l74.502-74.516z"/></svg>

<svg xmlns="http://www.w3.org/2000/svg" viewBox="0 0 448 448"><path d="M441.53 144L328.407 257.156l-22.625-22.64L380.284 160H160v-32h220.283L305.78 53.484l22.626-22.625L441.53 144zm-299.31 69.484l-22.626-22.625L6.47 304l113.124 113.125L142.22 394.5 67.72 320H288v-32H67.717l74.502-74.516z"/></svg>
